src/assets/icons/rss_icon.svg

<svg width="70" height="70" viewBox="0 0 70 70" fill="none" xmlns="http://www.w3.org/2000/svg">
<path d="M18.025 58.3334C21.5366 58.3334 24.3833 55.4866 24.3833 51.975C24.3833 48.4634 21.5366 45.6167 18.025 45.6167C14.5134 45.6167 11.6667 48.4634 11.6667 51.975C11.6667 55.4866 14.5134 58.3334 18.025 58.3334Z" fill="#CCCCCC"/>
<path d="M11.6667 12.9498V21.204C32.1708 21.204 48.7958 37.829 48.7958 58.3332H57.05C57.05 33.279 36.7208 12.9498 11.6667 12.9498ZM11.6667 29.4582V37.7123C23.0417 37.7123 32.2875 46.9582 32.2875 58.3332H40.5417C40.5417 42.379 27.6208 29.4582 11.6667 29.4582Z" fill="#CCCCCC"/>
</svg>

<svg xmlns="http://www.w3.org/2000/svg" width="70" height="70" fill="none"><path fill="#CCC" d="M18.025 58.333a6.358 6.358 0 1 0 0-12.716 6.358 6.358 0 0 0 0 12.716Z"/><path fill="#CCC" d="M11.667 12.95v8.254c20.504 0 37.129 16.625 37.129 37.13h8.254c0-25.055-20.33-45.384-45.383-45.384Zm0 16.508v8.254c11.375 0 20.62 9.246 20.62 20.621h8.255c0-15.954-12.921-28.875-28.875-28.875Z"/></svg>
